media/costumes/muffin-b.svg

<svg width="86" height="73" xmlns="http://www.w3.org/2000/svg"><path fill="#703D00" d="M46.664 51.174c6.113 0 11.652 1.006 15.663 2.632 4.01 1.626 6.493 3.87 6.493 6.348 0 2.478-2.483 4.723-6.493 6.348-4.011 1.626-9.55 2.632-15.663 2.632-6.113 0-11.652-1.006-15.663-2.632-4.01-1.625-6.493-3.87-6.493-6.348 0-2.477 2.482-4.722 6.493-6.348 4.01-1.626 9.55-2.632 15.663-2.632z"/><path fill="#A85B00" stroke="#A85B00" stroke-width="1.995" stroke-linecap="round" d="M197.8 176.4a471.469 471.469 0 0 1 31.55.5c2.626.132 6.619-1.583 6.45 1-.676 10.327-5.044 20.644-8.85 30.55-2.104 5.623-3.082 14.022-8.8 16.6-9.456 3.986-20.86 2.573-31.1 1-3.722-.599-6.05-4.022-8.1-6.7-3.451-4.497-5.951-9.711-8.15-14.5-3.71-8.179-9.069-16.385-10.2-24.9-.308-2.32 3.935-2.19 6.55-2.55 10.112-1.314 20.556-.828 30.65-1z" transform="matrix(.8981 0 0 .8145 -137.457 -120.847)"/><path fill="#703D00" d="M42.138 25.633c8.612 0 16.416.945 22.067 2.47 5.651 1.527 9.15 3.635 9.15 5.96 0 2.326-3.499 4.434-9.15 5.96-5.65 1.526-13.455 2.47-22.067 2.47s-16.416-.944-22.067-2.47c-5.65-1.526-9.149-3.634-9.149-5.96 0-2.325 3.498-4.433 9.15-5.96 5.65-1.525 13.454-2.47 22.066-2.47z"/><path fill="#F0C444" stroke="#A85B00" stroke-width="1.995" stroke-linecap="round" d="M194.95 126.15c2.377-.618 1.962.589 2.65 1.2 1.235.87 1.835 2.443 3 3.15.833.509 2.098-.35 2.95.15 1.073.869 1.213 2.625 2.25 3.55.641.577 1.639.024 2.4.25 1.364.486 2.627 1.239 4.05 1.45.785.294 1.591-.155 2.45.05 1.264.313 2.192 1.802 3.5 1.8 1.757-.026 3.125-2.691 4.9-2.35 2.722.537 5.353 2.657 7.2 5 2.645 3.272 7.03 7.113 5.9 11.375-1.384 5.188-4.645 7.902-12.148 10.621-7.504 2.72-17.866 4.404-29.302 4.404s-21.798-1.684-29.302-4.404c-7.503-2.719-12.61-5.283-12.148-10.621.675-7.078 7.814-12.407 13.65-16.325 8.528-4.919 18.491-6.828 28-9.3z" transform="matrix(.95937 0 0 .86034 -145.817 -106.787)"/></svg>

<svg version="1.1" width="86" height="73" xmlns="http://www.w3.org/2000/svg" xmlns:xlink="http://www.w3.org/1999/xlink">
  <!-- Exported by Scratch - http://scratch.mit.edu/ -->
  <g id="ID0.5017378916963935" transform="matrix(0.949999988079071, 0, 0, 0.949999988079071, 0.15, -0.15)">
    <path id="ID0.2171387574635446" fill="#703D00" stroke="none" d="M 166.525 201 C 175.457 201 183.551 202.361 189.412 204.561 C 195.272 206.760 198.900 209.798 198.900 213.150 C 198.900 216.502 195.272 219.540 189.412 221.739 C 183.551 223.939 175.457 225.300 166.525 225.300 C 157.593 225.300 149.499 223.939 143.638 221.739 C 137.778 219.540 134.150 216.502 134.150 213.150 C 134.150 209.798 137.778 206.760 143.638 204.561 C 149.499 202.361 157.593 201 166.525 201 Z " transform="matrix(0.7203841209411621, 0, 0, 0.7779883742332458, -71, -102.35)"/>
    <path id="ID0.43220555409789085" fill="#A85B00" stroke="#A85B00" stroke-width="1.995125" stroke-linecap="round" d="M 197.800 176.400 C 208.304 176.219 218.860 176.377 229.350 176.900 C 231.976 177.032 235.969 175.317 235.800 177.900 C 235.124 188.227 230.756 198.544 226.950 208.450 C 224.846 214.073 223.868 222.472 218.150 225.050 C 208.694 229.036 197.290 227.623 187.050 226.050 C 183.328 225.451 181 222.028 178.950 219.350 C 175.499 214.853 172.999 209.639 170.800 204.850 C 167.090 196.671 161.731 188.465 160.600 179.950 C 160.292 177.630 164.535 177.760 167.150 177.400 C 177.262 176.086 187.706 176.572 197.800 176.400 Z " transform="matrix(0.9453673958778381, 0, 0, 0.8573749661445618, -144.85, -127.05)"/>
    <path id="ID0.8022473398596048" fill="#703D00" stroke="none" d="M 140.875 204.100 C 149.310 204.100 156.954 205.260 162.489 207.133 C 168.024 209.007 171.450 211.595 171.450 214.450 C 171.450 217.305 168.024 219.893 162.489 221.767 C 156.954 223.640 149.310 224.800 140.875 224.800 C 132.440 224.800 124.796 223.640 119.261 221.767 C 113.726 219.893 110.300 217.305 110.300 214.450 C 110.300 211.595 113.726 209.007 119.261 207.133 C 124.796 205.260 132.440 204.100 140.875 204.100 Z " transform="matrix(1.0746980905532837, 0, 0, 0.8573749661445618, -107.2, -147.85)"/>
    <path id="ID0.818717781919986" fill="#F0C444" stroke="#A85B00" stroke-width="1.995125" stroke-linecap="round" d="M 194.950 126.150 C 197.327 125.532 196.912 126.739 197.600 127.350 C 198.835 128.220 199.435 129.793 200.600 130.500 C 201.433 131.009 202.698 130.150 203.550 130.650 C 204.623 131.519 204.763 133.275 205.800 134.200 C 206.441 134.777 207.439 134.224 208.200 134.450 C 209.564 134.936 210.827 135.689 212.250 135.900 C 213.035 136.194 213.841 135.745 214.700 135.950 C 215.964 136.263 216.892 137.752 218.200 137.750 C 219.957 137.724 221.325 135.059 223.100 135.400 C 225.822 135.937 228.453 138.057 230.300 140.400 C 232.945 143.672 237.330 147.513 236.200 151.775 C 234.816 156.963 231.555 159.677 224.052 162.396 C 216.548 165.116 206.186 166.800 194.750 166.800 C 183.314 166.800 172.952 165.116 165.448 162.396 C 157.945 159.677 152.838 157.113 153.300 151.775 C 153.975 144.697 161.114 139.368 166.950 135.450 C 175.478 130.531 185.441 128.622 194.950 126.150 Z " transform="matrix(1.0098645687103271, 0, 0, 0.9056211709976196, -153.65, -112.25)"/>
  </g>
</svg>
